**kern	**silbe	**harmony	**phrase	**leadinstrument	**rhyme	**timestamp	**harte
*ICvox	*	*M4/4	*	*	*	*	*M4/4
*VRlead	*	*	*	*	*	*	*
*Hstimme	*	*	*	*	*	*	*
*d:	*	*d:	*d:	*d:	*	*d:	*d:
*M4/4	*	*	*	*	*	*	*
*clefF4	*	*	*	*	*	*	*
r;	.	1r;	.	r	.	0	N.C.
r;	.	1r;	.	r	.	0.045	N.C.
=1	=1	=1	=1	=1	=1	=1	=1
*>Letter>A	*>Letter>A	*>Letter>A	*>Letter>A	*>Letter>A	*>Letter>A	*>Letter>A	*>Letter>A
*>Label>Verse	*>Label>Verse	*>Label>Verse	*>Label>Verse	*>Label>Verse	*>Label>Verse	*>Label>Verse	*>Label>Verse
8D	We	1Dm	newline	voice	A	1.495	D:min
4E	don't	.	.	.	.	.	.
4F	need	.	.	.	(A	.	.
4.E	no	.	.	.	a)	.	.
=2	=2	=2	=2	=2	=2	=2	=2
4D	ed-	1Dm	.	voice	.	3.792	D:min
8E	-u-	.	.	.	.	.	.
4F	-ca-	.	.	.	.	.	.
4.E	-tion	.	.	.	.	.	.
=3	=3	=3	=3	=3	=3	=3	=3
1r	.	1Dm	.	voice	.	6.089	D:min
=4	=4	=4	=4	=4	=4	=4	=4
1r	.	1Dm	.	voice	.	8.385	D:min
=5	=5	=5	=5	=5	=5	=5	=5
8D	We	1Dm	newline	voice	A	10.682	D:min
4E	don't	.	.	.	.	.	.
4F	need	.	.	.	(A	.	.
4.E	no	.	.	.	a)	.	.
=6	=6	=6	=6	=6	=6	=6	=6
4D	thought	1Dm	.	voice	.	12.99	D:min
8E	con-	.	.	.	.	.	.
4.F	-trol	.	.	.	B	.	.
4r	.	.	.	.	.	.	.
=7	=7	=7	=7	=7	=7	=7	=7
1r	.	1Dm	.	voice	.	15.298	D:min
=8	=8	=8	=8	=8	=8	=8	=8
2r	.	1Dm	.	voice	.	17.606	D:min
4.r	.	.	.	.	.	.	.
8AA	No	.	.	.	.	.	.
=9	=9	=9	=9	=9	=9	=9	=9
4D	dark	1Dm	newline	voice	.	19.915	D:min
8E	sar-	.	.	.	.	.	.
4F	-ca-	.	.	.	(C	.	.
4.E	-sm	.	.	.	c)	.	.
=10	=10	=10	=10	=10	=10	=10	=10
4D	in	1Dm	.	voice	.	22.214	D:min
8E	the	.	.	.	.	.	.
4F	class	.	.	.	(C	.	.
4.E	room	.	.	.	C)	.	.
=11	=11	=11	=11	=11	=11	=11	=11
1r	.	1Dm	.	voice	.	24.513	D:min
=12	=12	=12	=12	=12	=12	=12	=12
1r	.	1Dm	.	voice	.	26.812	D:min
=13	=13	=13	=13	=13	=13	=13	=13
4D	Tea-	1Dm	newline	voice	(A	29.112	D:min
8E	-cher	.	.	.	a)	.	.
4F	leave	.	.	.	A	.	.
4.E	them	.	.	.	.	.	.
=14	=14	=14	=14	=14	=14	=14	=14
4D	kids	1Dm	.	voice	.	31.424	D:min
8E	a-	.	.	.	.	.	.
4.F	-lone	.	.	.	B	.	.
4r	.	.	.	.	.	.	.
=15	=15	=15	=15	=15	=15	=15	=15
1r	.	1GM	.	voice	.	33.736	G:maj
=16	=16	=16	=16	=16	=16	=16	=16
1r	.	1GM	.	voice	.	36.048	G:maj
=17	=17	=17	=17	=17	=17	=17	=17
2r	.	1GM	newline	voice	.	38.361	G:maj
4A	Hey	.	.	.	.	.	.
4r	.	.	.	.	.	.	.
=18	=18	=18	=18	=18	=18	=18	=18
16F	tea-	1GM	.	voice	(A	40.681	G:maj
16F	-cher	.	.	.	a)	.	.
8r	.	.	.	.	.	.	.
4r	.	.	.	.	.	.	.
8A	leave	.	.	.	A	.	.
8G	them	.	.	.	.	.	.
8F	kids	.	.	.	.	.	.
16G	a-	.	.	.	.	.	.
[16F	-lone	.	.	.	B	.	.
=19	=19	=19	=19	=19	=19	=19	=19
4F]	_	1Dm	.	voice	.	43.001	D:min
4r	.	.	.	.	.	.	.
2r	.	.	.	.	.	.	.
=20	=20	=20	=20	=20	=20	=20	=20
1r	.	1Dm	.	voice	.	45.321	D:min
=21	=21	=21	=21	=21	=21	=21	=21
*>Letter>B	*>Letter>B	*>Letter>B	*>Letter>B	*>Letter>B	*>Letter>B	*>Letter>B	*>Letter>B
*>Label>Chorus	*>Label>Chorus	*>Label>Chorus	*>Label>Chorus	*>Label>Chorus	*>Label>Chorus	*>Label>Chorus	*>Label>Chorus
4r	.	1FM	newline	voice	.	47.641	F:maj
8F	All	.	.	.	D	.	.
16F	in	.	.	.	.	.	.
8.F	all	.	.	.	D	.	.
8F	it's	.	.	.	.	.	.
8F	just	.	.	.	.	.	.
8F	a-	.	.	.	.	.	.
=22	=22	=22	=22	=22	=22	=22	=22
4r	.	1CM	.	voice	.	49.959	C:maj
16E	-no-	.	.	.	.	.	.
8.E	-ther	.	.	.	.	.	.
6E	brick	.	.	.	.	.	.
6D	in	.	.	.	.	.	.
6C	the	.	.	.	.	.	.
=23	=23	=23	=23	=23	=23	=23	=23
4D	wall	1Dm	.	voice	D	52.277	D:min
4r	.	.	.	.	.	.	.
2r	.	.	.	.	.	.	.
=24	=24	=24	=24	=24	=24	=24	=24
1r	.	1Dm	.	voice	.	54.595	D:min
=25	=25	=25	=25	=25	=25	=25	=25
4r	.	1FM	newline	voice	.	56.913	F:maj
8F	All	.	.	.	D	.	.
16F	in	.	.	.	.	.	.
8.F	all	.	.	.	D	.	.
8F	you're	.	.	.	.	.	.
8F	just	.	.	.	.	.	.
8F	a	.	.	.	.	.	.
=26	=26	=26	=26	=26	=26	=26	=26
4r	.	1CM	.	voice	.	59.241	C:maj
16E	no-	.	.	.	.	.	.
8.E	-ther	.	.	.	.	.	.
6E	brick	.	.	.	.	.	.
6D	in	.	.	.	.	.	.
6C	the	.	.	.	.	.	.
=27	=27	=27	=27	=27	=27	=27	=27
4D	wall	1Dm	.	voice	D	61.57	D:min
4r	.	.	.	.	.	.	.
2r	.	.	.	.	.	.	.
=28	=28	=28	=28	=28	=28	=28	=28
1r	.	1N	.	voice	.	63.898	N.C.
=29	=29	=29	=29	=29	=29	=29	=29
*>Letter>A	*>Letter>A	*>Letter>A	*>Letter>A	*>Letter>A	*>Letter>A	*>Letter>A	*>Letter>A
*>Label>Verse	*>Label>Verse	*>Label>Verse	*>Label>Verse	*>Label>Verse	*>Label>Verse	*>Label>Verse	*>Label>Verse
8d	We	1N	newline	voice	A	66.227	N.C.
4e	don't	.	.	.	.	.	.
4f	need	.	.	.	(A	.	.
4.e	no	.	.	.	a)	.	.
=30	=30	=30	=30	=30	=30	=30	=30
4d	ed-	1N	.	voice	.	68.534	N.C.
8e	-u-	.	.	.	.	.	.
4f	-ca-	.	.	.	.	.	.
4.e	-tion	.	.	.	.	.	.
=31	=31	=31	=31	=31	=31	=31	=31
1r	.	1Dm	.	voice	.	70.841	D:min
=32	=32	=32	=32	=32	=32	=32	=32
1r	.	1Dm	.	voice	.	73.148	D:min
=33	=33	=33	=33	=33	=33	=33	=33
8d	We	1Dm	newline	voice	A	75.455	D:min
4e	don't	.	.	.	.	.	.
4f	need	.	.	.	(A	.	.
4.e	no	.	.	.	a)	.	.
=34	=34	=34	=34	=34	=34	=34	=34
4d	thought	1Dm	.	voice	.	77.762	D:min
8e	con-	.	.	.	.	.	.
4.f	-trol	.	.	.	B	.	.
4r	.	.	.	.	.	.	.
=35	=35	=35	=35	=35	=35	=35	=35
1r	.	1Dm	.	voice	.	80.069	D:min
=36	=36	=36	=36	=36	=36	=36	=36
2r	.	1Dm	.	voice	.	82.375	D:min
4.r	.	.	.	.	.	.	.
8A	No	.	.	.	.	.	.
=37	=37	=37	=37	=37	=37	=37	=37
4d	dark	1Dm	newline	voice	.	84.682	D:min
8e	sar-	.	.	.	.	.	.
4f	-ca-	.	.	.	(C	.	.
4.e	-sm	.	.	.	c)	.	.
=38	=38	=38	=38	=38	=38	=38	=38
4d	in	1Dm	.	voice	.	86.991	D:min
8e	the	.	.	.	.	.	.
4f	class	.	.	.	(C	.	.
4.e	room	.	.	.	c)	.	.
=39	=39	=39	=39	=39	=39	=39	=39
1r	.	1Dm	.	voice	.	89.3	D:min
=40	=40	=40	=40	=40	=40	=40	=40
1r	.	1Dm	.	voice	.	91.61	D:min
=41	=41	=41	=41	=41	=41	=41	=41
8d	Tea-	1Dm	newline	voice	(A	93.919	D:min
4e	-chers	.	.	.	a)	.	.
4f	leave	.	.	.	A	.	.
4.e	them	.	.	.	.	.	.
=42	=42	=42	=42	=42	=42	=42	=42
4d	kids	1Dm	.	voice	.	96.23	D:min
8e	a-	.	.	.	.	.	.
4.f	-lone	.	.	.	B	.	.
4r	.	.	.	.	.	.	.
=43	=43	=43	=43	=43	=43	=43	=43
1r	.	1GM	.	voice	.	98.541	G:maj
=44	=44	=44	=44	=44	=44	=44	=44
1r	.	1GM	.	voice	.	100.853	G:maj
=45	=45	=45	=45	=45	=45	=45	=45
2r	.	1GM	newline	voice	.	103.164	G:maj
4a	Hey	.	.	.	.	.	.
4r	.	.	.	.	.	.	.
=46	=46	=46	=46	=46	=46	=46	=46
8a	tea-	1GM	.	voice	(A	105.468	G:maj
8a	-cher	.	.	.	a)	.	.
4r	.	.	.	.	.	.	.
8a	leave	.	.	.	A	.	.
8g	those	.	.	.	.	.	.
8f	kids	.	.	.	.	.	.
16g	a-	.	.	.	.	.	.
[16f	-lone	.	.	.	B	.	.
=47	=47	=47	=47	=47	=47	=47	=47
4f]	_	1Dm	.	voice	.	107.773	D:min
4r	.	.	.	.	.	.	.
2r	.	.	.	.	.	.	.
=48	=48	=48	=48	=48	=48	=48	=48
1r	.	1Dm	.	voice	.	110.077	D:min
=49	=49	=49	=49	=49	=49	=49	=49
*>Letter>B	*>Letter>B	*>Letter>B	*>Letter>B	*>Letter>B	*>Letter>B	*>Letter>B	*>Letter>B
*>Label>Chorus	*>Label>Chorus	*>Label>Chorus	*>Label>Chorus	*>Label>Chorus	*>Label>Chorus	*>Label>Chorus	*>Label>Chorus
4r	.	1FM	newline	voice	.	112.382	F:maj
8f	All	.	.	.	D	.	.
16f	in	.	.	.	.	.	.
8.f	all	.	.	.	D	.	.
8f	it's	.	.	.	.	.	.
8f	just	.	.	.	.	.	.
8f	a-	.	.	.	.	.	.
=50	=50	=50	=50	=50	=50	=50	=50
4r	.	1CM	.	voice	.	114.717	C:maj
16e	-no-	.	.	.	.	.	.
8.e	-ther	.	.	.	.	.	.
6e	brick	.	.	.	.	.	.
6d	in	.	.	.	.	.	.
6c	the	.	.	.	.	.	.
=51	=51	=51	=51	=51	=51	=51	=51
4d	wall	1Dm	.	voice	D	117.052	D:min
4r	.	.	.	.	.	.	.
2r	.	.	.	.	.	.	.
=52	=52	=52	=52	=52	=52	=52	=52
1r	.	1Dm	.	voice	.	119.388	D:min
=53	=53	=53	=53	=53	=53	=53	=53
4r	.	1FM	newline	voice	.	121.723	F:maj
8f	All	.	.	.	D	.	.
16f	in	.	.	.	.	.	.
8.f	all	.	.	.	D	.	.
8f	you're	.	.	.	.	.	.
8f	just	.	.	.	.	.	.
8f	a	.	.	.	.	.	.
=54	=54	=54	=54	=54	=54	=54	=54
4r	.	1CM	.	voice	.	124.067	C:maj
16e	no-	.	.	.	.	.	.
8.e	-ther	.	.	.	.	.	.
6e	brick	.	.	.	.	.	.
6d	in	.	.	.	.	.	.
6c	the	.	.	.	.	.	.
=55	=55	=55	=55	=55	=55	=55	=55
4d	wall	1Dm	.	voice	D	126.412	D:min
4r	.	.	.	.	.	.	.
2r	.	.	.	.	.	.	.
=56	=56	=56	=56	=56	=56	=56	=56
1r	.	1Dm	.	voice	.	128.756	D:min
=57	=57	=57	=57	=57	=57	=57	=57
*>Letter>C	*>Letter>C	*>Letter>C	*>Letter>C	*>Letter>C	*>Letter>C	*>Letter>C	*>Letter>C
*>Label>Solo	*>Label>Solo	*>Label>Solo	*>Label>Solo	*>Label>Solo	*>Label>Solo	*>Label>Solo	*>Label>Solo
1r	.	1Dm	newline	guitar	.	131.101	D:min
=58	=58	=58	=58	=58	=58	=58	=58
1r	.	1Dm	.	guitar	.	133.425	D:min
=59	=59	=59	=59	=59	=59	=59	=59
1r	.	1Dm	.	guitar	.	135.748	D:min
=60	=60	=60	=60	=60	=60	=60	=60
1r	.	1Dm	.	guitar	.	138.072	D:min
=61	=61	=61	=61	=61	=61	=61	=61
1r	.	1Dm	newline	guitar	.	140.395	D:min
=62	=62	=62	=62	=62	=62	=62	=62
1r	.	1Dm	.	guitar	.	142.706	D:min
=63	=63	=63	=63	=63	=63	=63	=63
1r	.	1Dm	.	guitar	.	145.016	D:min
=64	=64	=64	=64	=64	=64	=64	=64
1r	.	1Dm	.	guitar	.	147.327	D:min
=65	=65	=65	=65	=65	=65	=65	=65
1r	.	1CM	newline	guitar	.	149.637	C:maj/2
=66	=66	=66	=66	=66	=66	=66	=66
1r	.	1CM	.	guitar	.	151.979	C:maj/2
=67	=67	=67	=67	=67	=67	=67	=67
1r	.	1Dm	.	guitar	.	154.321	D:min
=68	=68	=68	=68	=68	=68	=68	=68
1r	.	1Dm	.	guitar	.	156.662	D:min
=69	=69	=69	=69	=69	=69	=69	=69
1r	.	1CM	newline	guitar	.	159.004	C:maj/2
=70	=70	=70	=70	=70	=70	=70	=70
1r	.	1CM	.	guitar	.	161.328	C:maj/2
=71	=71	=71	=71	=71	=71	=71	=71
1r	.	1Dm	newline	guitar	.	163.653	D:min
=72	=72	=72	=72	=72	=72	=72	=72
1r	.	1Dm	.	guitar	.	165.974	D:min
=73	=73	=73	=73	=73	=73	=73	=73
1r	.	1GMm	.	guitar	.	168.295	G:7/5
=74	=74	=74	=74	=74	=74	=74	=74
1r	.	1GMm	.	guitar	.	170.616	G:7/5
=75	=75	=75	=75	=75	=75	=75	=75
1r	.	1Dm	newline	guitar	.	172.937	D:min
=76	=76	=76	=76	=76	=76	=76	=76
1r	.	1Dm	.	guitar	.	175.259	D:min
=77	=77	=77	=77	=77	=77	=77	=77
1r	.	1GMm	.	guitar	.	177.581	G:7/5
=78	=78	=78	=78	=78	=78	=78	=78
1r	.	1GMm	.	guitar	.	179.904	G:7/5
=79	=79	=79	=79	=79	=79	=79	=79
1r	.	1Dm	newline	guitar	.	182.226	D:min
=80	=80	=80	=80	=80	=80	=80	=80
1r	.	1Dm	.	guitar	.	184.569	D:min
=81	=81	=81	=81	=81	=81	=81	=81
1r	.	1Dm	.	guitar	.	186.911	D:sus4(b7,9)
=82	=82	=82	=82	=82	=82	=82	=82
1r	.	1Dm	.	guitar	.	189.254	D:sus4(b7,9)
=83	=83	=83	=83	=83	=83	=83	=83
1r	.	1B-M	newline	guitar	.	191.596	B-:maj/3
=84	=84	=84	=84	=84	=84	=84	=84
1r	.	1B-M	.	guitar	.	193.927	B-:maj/3
=85	=85	=85	=85	=85	=85	=85	=85
1r	.	1Dm	.	guitar	.	196.257	D:sus4(b7,9)
=86	=86	=86	=86	=86	=86	=86	=86
1r	.	1Dm	.	guitar	.	198.587	D:sus4(b7,9)
=87	=87	=87	=87	=87	=87	=87	=87
*>Label>>Fadeout	*>Label>>Fadeout	*>Label>>Fadeout	*>Label>>Fadeout	*>Label>>Fadeout	*>Label>>Fadeout	*>Label>>Fadeout	*>Label>>Fadeout
1r	.	1Dm	newline	drums	.	200.917	D:1
=88	=88	=88	=88	=88	=88	=88	=88
1r	.	1N	.	drums	.	203.224	N.C.
=89	=89	=89	=89	=89	=89	=89	=89
1r	.	1N	.	drums	.	205.53	N.C.
=90	=90	=90	=90	=90	=90	=90	=90
1r	.	1N	.	drums	.	207.837	N.C.
=91	=91	=91	=91	=91	=91	=91	=91
1r	.	1N	newline	drums	.	210.144	N.C.
=92	=92	=92	=92	=92	=92	=92	=92
1r	.	1N	.	drums	.	212.476	N.C.
=93	=93	=93	=93	=93	=93	=93	=93
1r	.	1N	.	drums	.	214.808	N.C.
=94	=94	=94	=94	=94	=94	=94	=94
1r	.	1N	.	drums	.	217.14	N.C.
=95	=95	=95	=95	=95	=95	=95	=95
1r	.	1N	newline	drums	.	219.473	N.C.
=96	=96	=96	=96	=96	=96	=96	=96
1r	.	1N	.	drums	.	221.782	N.C.
r;	.	1r;	.	r	.	224.092	N.C.
r;	.	1r;	.	r	.	239.961	N.C.
*-	*-	*-	*-	*-	*-	*-	*-
!!!BillboardChartDate: 1980/07/05
!!!BillboardPeak: 1
!!!BillboardWeeksOnChart: 25
!!!COC: Pink Floyd
!!!ENC: Nathaniel Condit-Schultz
!!!EST: Awating manual error checking and editing.
!!!OTL: Another Brick In The Wall (Part II)
!!!RDF**chordsym: original McGill chord annotation + (implied pitch class set, with bass pitch in first position)
!!!RDF**harmony: **recip + pitch class of root + harmonic quality
!!!RDF**leadinstrument: original McGill primary instrumentation annotation
!!!RDF**phrase: newline = linebreak in original McGill transcription
!!!RDF**timestamp: McGill audio timestamp in seconds
!!!RDT: 2017/01/12/
!!!SampleActualRank: 94
!!!SampleID#: 1052
!!!SampleTargetRank: 93
